X:1
T:Title
%%score { ( 1 3 ) | ( 2 4 ) }
L:1/8
M:6/8
K:Ab
V:1 treble nm="Grand Piano"
V:3 treble 
V:2 bass 
V:4 bass 
V:1
 z3 z2[Q:1/4=93] [CE] | [Ec][DB][CA] [A,C][B,D][CE] | G3 F2 F | EGd c2 B | %4
[M:5/8] [Ec]-[Ec]- [Ec]3 |[M:1/8] [CE] |[M:3/4] [Ec][DB] [CA][A,C] [B,D][CE] | G3 F2 G/F/ | %8
 EG d c2 B |[M:5/8] [CA]-[CA]- [CA]3 |[M:1/8] [_GA] |[M:3/4] d3 d3 | c4 z2 | B=A B [Ge]2 [GB] | %14
 [Ac]4- [Ac][CE] | [CA][DB] [Ec] [CA]2 [CG]/[CA]/ | [FB][Fc] [Fd] [GB]2 [Ge] | %17
 [Ae][EAc] [CEA]=D- [Dc]B |[M:5/8] [CA]-[CA]- [CA]3 |] %19
V:2
 z3 z2 [A,,A,] | [A,,A,][A,,A,][A,,A,] [A,,E,][A,,E,][A,,A,] | [D,A,D]3 [D,A,D]2 [D,A,D] | %3
 [E,G,D][E,B,D][E,G,F] [E,A,E]2 [E,G,D] |[M:5/8] [A,,A,]-[A,,A,]- [A,,A,]3 |[M:1/8] [A,,A,] | %6
[M:3/4] [A,,A,][A,,A,] [A,,A,][A,,E,] [A,,E,][A,,A,] | [D,A,D]3 [D,A,D]2 [D,B,D]/[D,A,D]/ | %8
 [E,G,D][E,B,D] [E,G,F] [E,A,E]2 [E,G,D] |[M:5/8] [A,,A,]-[A,,A,]- [A,,A,]3 |[M:1/8] [C,A,] | %11
[M:3/4] [D,A,][D,A,] [D,A,] [D,A,]2 [D,A,] | [A,,A,][A,,A,] [A,,A,] [A,,A,]3 | %13
 [E,G,E][E,_G,E] [E,=G,E] [E,B,]2 [E,E] | [A,E]4- [A,E][A,,A,] | %15
 [A,,A,][A,,A,] [A,,A,] [A,,A,]2 [A,,A,]/[A,,A,]/ | [D,B,][C,=A,] [B,,B,] [E,B,]2 [E,D] | %17
 [A,C]A, .A,2 A,[E,G,D] |[M:5/8] [A,,A,]-[A,,A,]- [A,,A,]3 |] %19
V:3
 x6 | x6 | x6 | x6 |[M:5/8] x5 |[M:1/8] x |[M:3/4] x6 | x6 | x6 |[M:5/8] x5 |[M:1/8] x | %11
[M:3/4] FF F F2 F | EE E [Ec]3 | x6 | x6 | x6 | x6 | z2 z [B,B] z2 |[M:5/8] x5 |] %19
V:4
 x6 | x6 | x6 | x6 |[M:5/8] x5 |[M:1/8] x |[M:3/4] x6 | x6 | x6 |[M:5/8] x5 |[M:1/8] x | %11
[M:3/4] x6 | x6 | x6 | x6 | x6 | x6 | z2 z .B,,3 |[M:5/8] x5 |] %19

